X: 728
P: Longways for as many as will
M: C|
L: 1/8
K: G
de |\
d2G2 G2A2 | B6 AB | cdcB ABAG | FGA2 A2de |\
d2G2 G2A2 | B6 AB | cB AG FG AF | G6 :|\
d2d2 g2d2 | edcB A2d2 | edcB (cB) (AG) | G6 |]

